X:1
T:JĒZUS SIRDS LITĀNIJA (2)
T:JĒZUS SIRDS LITĀNIJA (2)
L:1/8
M:4/4
K:D
V:1 treble nm=" " snm=" "
V:1
 FFEF B2 B2 | A2 cB F2 (FE) | DDEE F2 B,2 | F2 (EF) BB B2 | A2 cB FF (FE) | D2 EE FF B,2 | %6
w: ||||||
w: Ky- ri- e, e- lei- son!|Chri- ste, e- lei- son! *|Ky- ri- e, e- lei- son!|Kris- tu, * klau- si mūs!|Kris- tu, uz- klau- si- mūs! *|Kris- tu, uz- klau- si mūs!|
w: ||||||
w: ||||||
w: ||||||
w: ||||||
 x4 (EF) (BB) B2 | AAcB F2 (FE) | DDEE F2 B,2 | F2 (EF)"^Sirds,""^Sirds," B4 | %10
w: |||Jē- * Sirds, Sirds,|
w: Tēvs no de- be- sīm,|ap- žē- lo- jies par mums, _|ap- žē- lo- jies par mums!|Jē- * zus Sirds,|
w: sau- les Pes- tī- tājs,|ap- žē- lo- jies par mums, _|ap- žē- lo- jies par mums!|2. * zus Sirds,|
w: Svē- * tais * Gars,|ap- žē- lo- jies par mums, _|ap- žē- lo- jies par mums!|Jē- * Sirds, *|
w: viens * vie- nīgs Dievs,|ap- žē- lo- jies par mums, _|ap- žē- lo- jies par mums!|4. * zus *|
w: |||5. * zus *|
 x8 c"^asiņainais upu"BB (FF) (F"^-""^tī""^-""^bas""^sa""^-""^triek""^-"E) | DDEE F2 B,2 || %12
w: katras Dieva~nams~un pacietīgā~un~žēlsir- visu~siržu~valdniece~un * * kā||
w: mūžīgā * * * * * Tē-|ap- žē- lo- jies par mums!|
w: * * * * Jaunavas~Mātes~miesās~Svētā * Ga-|ap- žē- lo- jies par mums!|
w: * ar~Dieva~Vārdu * * * * tā,||
w: bezgalīgā * * * * * tā-||
w: * * * * * * va||
 F2 (EF) B4 | AA (3cBB F2 (FE) | (DD"^-"E)E F2 B,2 |] %15
w: |||
w: Die- va * Jērs,|kas nes pa- sau- les grē- kus: *|sau- * * dzē mūs, Kungs!|
w: Die- va * Jērs,|kas nes pa- sau- les grē- kus: *|uz- * klau- si mūs, Kungs!|
w: Die- va * Jērs,|kas nes pa- sau- les grē- kus: *|ap- žē- lo- jies par mums!|
w: |||
w: |||

